public/images/icons/chart-bar.svg

<svg xmlns="http://www.w3.org/2000/svg" fill="currentColor" viewBox="0 0 24 24"><path d="M22 21H2V3h2v16h2v-9h4v9h2V6h4v13h2v-5h4v7Z"/></svg>

<svg xmlns="http://www.w3.org/2000/svg" viewBox="0 0 24 24" fill="currentColor"><path d="M22,21H2V3H4V19H6V10H10V19H12V6H16V19H18V14H22V21Z" /></svg>
